svg/cellphone_nfc_off.svg

<svg xmlns="http://www.w3.org/2000/svg" viewBox="0 0 24 24"><path d="m20.84 22.73-1.99-1.99C18.56 21.5 17.84 22 17 22h-2.08c-.11-1.41-.42-2.75-.95-4h2.14L7 8.89V11c-.64-.26-1.31-.47-2-.63V6.89L1.11 3l1.28-1.27 19.72 19.73zM17 5v8.8l2 2V3a2 2 0 0 0-2-2H7c-.76 0-1.41.43-1.75 1.05L8.2 5zM2 20v3h3c0-1.66-1.34-3-3-3m0-4v2c2.76 0 5 2.24 5 5h2c0-3.87-3.13-7-7-7m0-4v2a9 9 0 0 1 9 9h2c0-6.08-4.92-11-11-11"/></svg>

<?xml version="1.0" encoding="UTF-8"?><!DOCTYPE svg PUBLIC "-//W3C//DTD SVG 1.1//EN" "http://www.w3.org/Graphics/SVG/1.1/DTD/svg11.dtd"><svg xmlns="http://www.w3.org/2000/svg" xmlns:xlink="http://www.w3.org/1999/xlink" version="1.1" id="mdi-cellphone-nfc-off" width="24" height="24" viewBox="0 0 24 24"><path d="M20.84 22.73L18.85 20.74C18.56 21.5 17.84 22 17 22H14.92C14.81 20.59 14.5 19.25 13.97 18H16.11L7 8.89V11C6.36 10.74 5.69 10.53 5 10.37V6.89L1.11 3L2.39 1.73L22.11 21.46L20.84 22.73M17 5V13.8L19 15.8V3C19 1.9 18.11 1 17 1H7C6.24 1 5.59 1.43 5.25 2.05L8.2 5H17M2 20V23H5C5 21.34 3.66 20 2 20M2 16V18C4.76 18 7 20.24 7 23H9C9 19.13 5.87 16 2 16M2 12V14C6.97 14 11 18.03 11 23H13C13 16.92 8.08 12 2 12Z" /></svg>
